icons/google-fit.svg

<?xml version="1.0" encoding="UTF-8"?>
<svg width="256px" height="216px" viewBox="0 0 256 216" version="1.1" xmlns="http://www.w3.org/2000/svg" xmlns:xlink="http://www.w3.org/1999/xlink" preserveAspectRatio="xMidYMid">
    <g>
        <path d="M55.5774312,0.518934349 C69.9640298,-1.34690438 84.9125622,1.8555732 97.2260067,9.53169919 C104.176529,13.6289064 109.735855,19.5592184 115.437029,25.1731016 C119.572426,29.2212078 123.664178,33.3184151 127.810486,37.35561 L127.963245,37.7756965 C124.865978,40.8249722 121.351577,46.9222616 117.420043,56.0675647 C109.17447,58.9683238 103.546988,61.8965291 100.537598,64.8521807 C93.8216694,58.3872132 87.3239678,51.6931076 80.6353179,45.1954061 C74.2740081,39.2378157 64.6611197,36.8373215 56.3303135,39.5706115 C46.8429054,42.2384336 39.603233,51.3112108 39.1013114,61.1586929 C38.7739713,66.2815659 40.1106102,71.4862739 42.8820899,75.8071636 C44.6060812,78.5895547 47.1266002,80.7118099 49.3852471,83.0359248 C54.8136375,88.4915936 60.372964,93.821782 65.7195194,99.3538301 C62.8643828,102.159652 59.4836867,107.591131 55.5774312,115.648267 C47.2683739,119.586376 41.5035506,123.167662 38.2829611,126.392125 C31.0651113,119.605273 24.1636903,112.452891 17.0113085,105.58966 C8.49500953,96.7296534 2.79929132,85.2345593 0.835250554,73.1066076 C-1.32519429,60.0948375 0.726137178,46.3956532 6.74919552,34.6495983 C11.8066005,24.8021161 19.4609038,16.2476275 28.7737304,10.2409361 C36.8699429,5.15079715 46.0409221,1.58278976 55.5774312,0.518934349 Z" fill="#EA4335"></path>
        <polygon fill="#34A853" points="128.083269 160.779205 190.490665 99.2719951 207.36413 109.294059 217.921767 126.452137 128.083269 215.330437 65.7631648 153.675924 77.7221592 136.846613 93.3633932 126.430314"></polygon>
        <polygon fill="#FBBC05" points="100.592154 64.9121931 116.289402 73.4031101 128.083269 92.1687143 65.7631648 153.675924 38.2829611 126.392125"></polygon>
        <path d="M203.333309,0.895375496 C221.620711,3.99419537 238.440538,15.4129101 247.660618,31.5671454 C258.16278,49.314436 258.735625,72.3428139 249.417343,90.7065951 C245.55473,98.5954921 239.657152,105.251408 233.377677,111.301745 C228.167513,116.28277 223.219222,121.596592 217.921767,126.452137 C208.756244,117.417549 199.579809,108.388418 190.490665,99.2719951 C196.966543,92.7306482 203.54608,86.2984147 210.043782,79.7788905 C214.233735,75.5452915 216.857912,69.7404599 217.070683,63.7665026 C217.359833,56.9851063 214.6811,50.105508 209.765542,45.4027215 C204.757239,40.6617453 197.741248,37.9666449 190.834372,38.5394901 C184.893148,38.8231849 179.159241,41.5182853 174.969287,45.7191503 C159.33334,61.1914269 143.735583,76.707349 128.083269,92.1687143 C118.879556,83.1232155 109.664932,74.088628 100.592154,64.9121931 C100.581243,64.895826 100.553965,64.8685477 100.537598,64.8521807 C109.703121,55.8503272 118.808632,46.7884613 127.963245,37.7756965 C134.597338,31.2398053 141.209608,24.6766357 147.849157,18.1352889 C156.447291,9.49896517 167.784171,3.84143664 179.628428,1.2445383 C187.43549,-0.223036606 195.488057,-0.38670667 203.333309,0.895375496 Z" fill="#4285F4"></path>
    </g>
</svg>

<svg xmlns="http://www.w3.org/2000/svg" viewBox="0 0 255.997 215.33">
  <path fill="#ea4335" d="M55.577.519c14.387-1.866 29.336 1.337 41.649 9.013 6.95 4.097 12.51 10.027 18.211 15.641 4.135 4.048 8.227 8.145 12.373 12.183l.153.42c-3.097 3.049-6.611 9.146-10.543 18.292-8.246 2.9-13.873 5.829-16.882 8.784-6.716-6.465-13.214-13.159-19.903-19.657-6.361-5.957-15.974-8.358-24.305-5.624-9.487 2.667-16.727 11.74-17.229 21.588-.327 5.123 1.01 10.327 3.781 14.648 1.724 2.783 4.245 4.905 6.503 7.229 5.429 5.456 10.988 10.786 16.335 16.318-2.856 2.806-6.236 8.237-10.143 16.294-8.309 3.938-14.073 7.52-17.294 10.744-7.218-6.787-14.12-13.94-21.272-20.802C8.495 96.73 2.8 85.235.835 73.107-1.325 60.095.726 46.396 6.75 34.65c5.058-9.848 12.712-18.402 22.025-24.41C36.87 5.15 46.04 1.584 55.577.52z"/>
  <path fill="#34a853" d="m207.364 109.294 10.558 17.158-89.839 88.878-62.32-61.654 11.96-16.83 15.64-10.416 34.72 34.35 62.408-61.508z"/>
  <path fill="#fbbc05" d="m128.083 92.169-62.32 61.507-27.48-27.284 62.31-61.48 15.696 8.491z"/>
  <path fill="#4285f4" d="M203.333.895c18.288 3.1 35.108 14.518 44.328 30.672 10.502 17.747 11.075 40.776 1.756 59.14-3.862 7.888-9.76 14.544-16.04 20.595-5.21 4.98-10.158 10.295-15.455 15.15-9.166-9.034-18.342-18.064-27.431-27.18 6.476-6.541 13.055-12.974 19.553-19.493 4.19-4.234 6.814-10.039 7.027-16.012.289-6.782-2.39-13.661-7.305-18.364-5.009-4.741-12.025-7.436-18.932-6.864-5.94.284-11.675 2.98-15.865 7.18-15.636 15.472-31.233 30.988-46.886 46.45-9.203-9.046-18.418-18.08-27.49-27.257a.54.54 0 0 0-.055-.06c9.165-9.002 18.27-18.064 27.425-27.076 6.634-6.536 13.247-13.1 19.886-19.64 8.598-8.637 19.935-14.295 31.78-16.891 7.806-1.468 15.859-1.632 23.704-.35z"/>
</svg>
